X:1
T:Waltz in A minor B. 150
C:Frédéric Chopin
M:3/4
L:1/4
Q:1/4=132
K:Am
A | e d c | B3 | A c e | e3 | d c d | e3 | c B A | A3 |
e3 | d c B | c3 | B A B | c d e | d c B | c B A | A3 |]
